X:0015
M:6/8
L:1/8
Q:3/8=120
K:A Minor
E|ABA c2d|edc B2A |GAG B2c |dge dBG|
  ABA c2d|edc Bcd |e2A BA^G|A3  A2:|
  cde g2a|gec de^g|a2A BA^G|A3  A2:|

